svg_sources/step-out.svg

<?xml version="1.0" encoding="UTF-8" standalone="no"?>

<svg
   xmlns="http://www.w3.org/2000/svg"
   version="1.1"
   width="32"
   height="32"
   viewBox="0 0 32 32">
  <path
     d="m 11,2.9999991 18,0 L 29,6 11,6 z M 17.75,7.5 29,7.5 l 0,3 -11.25,0 z m 0,4.5 11.25,0 0,3 -11.25,0 z m 0,4.5 11.25,0 0,3 -11.25,0 z M 11,21 l 18,0 0,3 -18,0 z"
     style="fill:#000000"/>
  <path
     style="fill:#000000;fill-opacity:1;fill-rule:evenodd;stroke:none"
     d="M 3 16 L 3 17 L 3 29 L 3 30 L 4 30 L 10.84375 30 L 10.84375 31 L 14.3125 29 L 10.84375 27 L 10.84375 28 L 5 28 L 5 18 L 12 18 L 12 16 L 4 16 L 3 16 z "/>
</svg>

<?xml version="1.0" encoding="UTF-8" standalone="no"?>

<svg
   xmlns="http://www.w3.org/2000/svg"
   version="1.1"
   width="32"
   height="32"
   viewBox="0 0 32 32">
  <path
     d="m 11,2.9999991 18,0 L 29,6 11,6 z M 17.75,7.5 29,7.5 l 0,3 -11.25,0 z m 0,4.5 11.25,0 0,3 -11.25,0 z m 0,4.5 11.25,0 0,3 -11.25,0 z M 11,21 l 18,0 0,3 -18,0 z"
     style="fill:#000000" />
  <path
     d="m 3,16 0,1 0,12 0,1 1,0 8,0 0,-2 -7,0 0,-10 7,0 0,-2 -8,0 -1,0 z"
     style="font-size:medium;font-style:normal;font-variant:normal;font-weight:normal;font-stretch:normal;text-indent:0;text-align:start;text-decoration:none;line-height:normal;letter-spacing:normal;word-spacing:normal;text-transform:none;direction:ltr;block-progression:tb;writing-mode:lr-tb;text-anchor:start;baseline-shift:baseline;color:#000000;fill:#000000;fill-opacity:1;stroke:none;stroke-width:2;marker:none;visibility:visible;display:inline;overflow:visible;enable-background:accumulate;font-family:Sans" />
  <path
     d="m 14.308,29 -3.46,2 0,-4 3.46,2 z"
     style="fill-rule:evenodd;stroke:none;stroke-width:0.40000000000000002pt;fill:#000000;fill-opacity:1" />
</svg>
